X: 16211
T: Greencastle, The
R: hornpipe
M: 4/4
K: Gmajor
dc|:"G" BGDG BGDG|"G" ~g2 fg "C" e2 dc|"G" BGDG BGDG|"Am" dcBc "D" A2dc|
"G" BGDG BGDG|"G" ~g2 fg "C" e2 dc|"G" Bdge "D" dcAF|1 "G" G2 B2 G2 dc:|2 "G" G2 B2 G2 ga||
|:"Em" bagf "C" efga|"Em" bagf "C" ~e2 fg|"A" agfe "D" defg|"A" agfe "D" ~d2 ef|
"G"~g3 d "Em"e2 d2|"C" cBAB cdef|"G"gfgd "D7" ecAF|1 "G" G2 B2 G2 ga:|2 "G" G2 B2 G4||

